app/img/contacts-artist/social-block/youtube-icon.svg

<svg width="24" height="24" viewBox="0 0 24 24" fill="none" xmlns="http://www.w3.org/2000/svg">
<g clip-path="url(#clip0_1_197)">
<path d="M23.499 6.20305C23.3599 5.70456 23.0946 5.25038 22.7286 4.88442C22.3627 4.51847 21.9085 4.25313 21.41 4.11405C19.54 3.61305 12.01 3.61305 12.01 3.61305C12.01 3.61305 4.501 3.60305 2.611 4.11405C2.11257 4.25337 1.65852 4.51893 1.29274 4.88505C0.926966 5.25118 0.661841 5.70549 0.523001 6.20405C0.168211 8.11887 -0.00688381 10.0627 8.09741e-07 12.0101C-0.00557772 13.9504 0.169511 15.8871 0.523001 17.7951C0.66199 18.2934 0.927182 18.7475 1.29295 19.1135C1.65872 19.4794 2.11269 19.7448 2.611 19.8841C4.48 20.3861 12.011 20.3861 12.011 20.3861C12.011 20.3861 19.519 20.3861 21.41 19.8841C21.9086 19.7449 22.3629 19.4794 22.7288 19.1133C23.0948 18.7471 23.3601 18.2927 23.499 17.7941C23.8447 15.8857 24.0121 13.9494 23.999 12.0101C24.0136 10.0627 23.8462 8.11825 23.499 6.20205V6.20305ZM9.608 15.6031V8.40705L15.874 12.0111L9.608 15.6031Z" fill="white"/>
</g>
<defs>
<clipPath id="clip0_1_197">
<rect width="24" height="24" fill="white"/>
</clipPath>
</defs>
</svg>

<svg width="24" height="24" fill="none" xmlns="http://www.w3.org/2000/svg"><g clip-path="url(#clip0_1_197)"><path d="M23.499 6.203a3.008 3.008 0 00-2.089-2.089c-1.87-.501-9.4-.501-9.4-.501s-7.509-.01-9.399.501a3.008 3.008 0 00-2.088 2.09A31.263 31.263 0 000 12.01c-.006 1.94.17 3.877.523 5.785a3.009 3.009 0 002.088 2.09c1.869.501 9.4.501 9.4.501s7.508 0 9.399-.502a3.008 3.008 0 002.089-2.09c.346-1.908.513-3.845.5-5.784a31.262 31.262 0 00-.5-5.808v.001zm-13.891 9.4V8.407l6.266 3.604-6.266 3.592z" fill="#fff"/></g><defs><clipPath id="clip0_1_197"><path fill="#fff" d="M0 0h24v24H0z"/></clipPath></defs></svg>
